dist/assets/img/instruction/03.svg

<svg width="98" height="70" viewBox="0 0 98 70" fill="none" xmlns="http://www.w3.org/2000/svg">
<path opacity="0.05" d="M23.3383 0.846872C28.118 0.846872 32.2297 2.01953 35.6734 4.36484C39.1469 6.71015 41.8188 10.3023 43.6891 15.1414C45.5891 19.9508 46.5391 26.6602 46.5391 35.2695C46.5391 43.968 45.5742 50.7367 43.6445 55.5758C41.7445 60.4148 39.1766 63.9773 35.9406 66.2633C32.7047 68.5195 28.6227 69.6477 23.6945 69.6477C18.7664 69.6477 14.625 68.5047 11.2703 66.2187C7.91563 63.9328 5.28828 60.4594 3.38828 55.7984C1.48828 51.1375 0.538281 44.5023 0.538281 35.893C0.538281 23.8695 2.39375 15.1562 6.10469 9.75312C10.2313 3.81562 15.9758 0.846872 23.3383 0.846872ZM23.65 12.6922C21.5422 12.6922 19.6719 13.375 18.0391 14.7406C16.4063 16.0766 15.1594 18.3922 14.2984 21.6875C13.4375 24.9828 13.007 29.807 13.007 36.1602C13.007 44.443 13.9867 50.1727 15.9461 53.3492C17.9352 56.4961 20.5031 58.0695 23.65 58.0695C26.6781 58.0695 29.0828 56.5703 30.8641 53.5719C33.0313 49.95 34.1148 43.8937 34.1148 35.4031C34.1148 26.7937 33.1352 20.8562 31.1758 17.5906C29.2461 14.325 26.7375 12.6922 23.65 12.6922ZM67.3565 18.6594H55.3776C56.0011 13.8203 57.7378 9.93125 60.5878 6.99218C64.5659 2.89531 69.5683 0.846872 75.5948 0.846872C80.9683 0.846872 85.4659 2.5539 89.0878 5.96797C92.7393 9.38203 94.5651 13.4344 94.5651 18.125C94.5651 21.0344 93.7636 23.6914 92.1604 26.0961C90.587 28.5008 88.2862 30.4453 85.2581 31.9297C89.2362 33.1172 92.3386 35.1953 94.5651 38.1641C96.8214 41.1031 97.9495 44.5766 97.9495 48.5844C97.9495 54.4625 95.7823 59.45 91.4479 63.5469C87.1136 67.6141 81.5917 69.6477 74.8823 69.6477C68.5292 69.6477 63.3487 67.7328 59.3409 63.9031C55.3331 60.0437 53.1362 54.8039 52.7503 48.1836H65.0854C65.6198 51.568 66.7925 54.0914 68.6034 55.7539C70.444 57.3867 72.7597 58.2031 75.5503 58.2031C78.4597 58.2031 80.8643 57.268 82.7643 55.3977C84.694 53.5273 85.6589 51.2414 85.6589 48.5398C85.6589 45.5711 84.3675 43.0625 81.7847 41.0141C79.2018 38.9656 75.4761 37.9117 70.6073 37.8523V27.1648C73.6058 26.9273 75.8323 26.4672 77.287 25.7844C78.7714 25.0719 79.9143 24.107 80.7159 22.8898C81.5472 21.6727 81.9628 20.3812 81.9628 19.0156C81.9628 17.2344 81.3393 15.7648 80.0925 14.607C78.8456 13.4195 77.2128 12.8258 75.194 12.8258C73.4128 12.8258 71.7948 13.375 70.3401 14.4734C68.8854 15.5422 67.8909 16.9375 67.3565 18.6594Z" fill="#525252"/>
</svg>

<svg width="98" height="70" fill="none" xmlns="http://www.w3.org/2000/svg"><path opacity=".05" d="M23.338.847c4.78 0 8.892 1.173 12.335 3.518 3.474 2.345 6.146 5.937 8.016 10.776 1.9 4.81 2.85 11.52 2.85 20.129 0 8.698-.965 15.467-2.895 20.306-1.9 4.839-4.467 8.401-7.703 10.687-3.236 2.256-7.318 3.385-12.247 3.385-4.928 0-9.069-1.143-12.424-3.43-3.354-2.285-5.982-5.759-7.882-10.42-1.9-4.66-2.85-11.296-2.85-19.905 0-12.024 1.856-20.737 5.567-26.14C10.23 3.816 15.975.847 23.338.847zm.312 11.845c-2.108 0-3.978.683-5.61 2.049-1.634 1.336-2.88 3.651-3.742 6.947-.86 3.295-1.291 8.119-1.291 14.472 0 8.283.98 14.013 2.94 17.19 1.988 3.146 4.556 4.72 7.703 4.72 3.028 0 5.433-1.5 7.214-4.498 2.167-3.622 3.25-9.678 3.25-18.169 0-8.61-.979-14.547-2.938-17.812-1.93-3.266-4.438-4.899-7.526-4.899zm43.706 5.967H55.378c.623-4.839 2.36-8.728 5.21-11.667C64.566 2.895 69.568.847 75.595.847c5.373 0 9.87 1.707 13.493 5.121 3.651 3.414 5.477 7.466 5.477 12.157 0 2.91-.801 5.566-2.405 7.971-1.573 2.405-3.874 4.35-6.902 5.834 3.978 1.187 7.08 3.265 9.307 6.234 2.256 2.94 3.385 6.413 3.385 10.42 0 5.878-2.168 10.866-6.502 14.963-4.334 4.067-9.856 6.1-16.566 6.1-6.353 0-11.533-1.914-15.541-5.744-4.008-3.86-6.205-9.1-6.59-15.72h12.334c.535 3.385 1.708 5.908 3.518 7.57 1.841 1.634 4.157 2.45 6.947 2.45 2.91 0 5.314-.935 7.214-2.805 1.93-1.87 2.895-4.157 2.895-6.858 0-2.969-1.291-5.477-3.874-7.526-2.583-2.048-6.309-3.102-11.178-3.162V27.165c2.999-.238 5.225-.698 6.68-1.38 1.484-.713 2.627-1.678 3.429-2.895.831-1.217 1.247-2.509 1.247-3.874 0-1.782-.624-3.251-1.87-4.409-1.247-1.188-2.88-1.781-4.899-1.781-1.781 0-3.4.549-4.854 1.647a8.017 8.017 0 00-2.984 4.186z" fill="#525252"/></svg>
